X:1
T:The Neutrality March
T:The Neutrality March
T:By MIKE BERNARD
T:Copyright 1915 by Chas. K. Harris.
T:Copyright 1915 by Chas. K. Harris.
T:Copyright 1915 by Chas. K. Harris.
T:Copyright 1915 by Chas. K. Harris.
T:Copyright 1915 by Chas. K. Harris.
T:Copyright 1915 by Chas. K. Harris.
C:By MIKE BERNARD
Z:Copyright 1915 by Chas. K. Harris.
%%score { ( 1 3 ) | ( 2 4 ) }
L:1/8
Q:1/4=90
M:2/4
K:Bb
V:1 treble nm="Piano" snm="Pno."
V:3 treble 
V:2 bass 
V:4 bass 
V:1
!f! z/ [Ff]/[Gg]/[Aa]/- [Aa]/[Gg]/[Ff] | z/ [Aa]/[Bb]/[cc']/- [cc']/[Bb]/[Aa] | %2
 z/ [cc']/[dd']/[ee']/- [ee']/[dd']/[cc'] | [ff'] z !^![fae'f'] z || %4
!mf! [Bd]((!>![A^cf][Bd]))((!>![Acf] | [Bd]))f/g/ [A^ca]/g/[Acf] |!<(! d4-!<)! |!>(! d3 z!>)! | %8
 [Bd]((!>![A^cf][Bd]))((!>![Acf] | [Bd]))f/g/ [Ba]/g/[Bf] |!<(! e4-!<)! |!>(! e3 z!>)! | %12
 [Ae]d/c/ [A=B][Ac] | [Aef][^Gdf] [Aef]2 | [Fd]c/B/ [FA][FB] | [df]d[^G=e][Gf] | %16
 [A^f][^Fd] [DA][D^G] | [^C=G][G^c=e] z [A^f] | d4- | d z !>![=FA_e=f]2 | %20
 [Bd]((!>![A^cf][Bd]))((!>![Acf] | [Bd]))f/g/ [A^ca]/g/[Acf] |!<(! d4-!<)! |!>(! d3 z!>)! | %24
 [Bd]((!>![A^cf][Bd]))((!>![Acf] | [Bd]))f/g/ [Ba]/g/[Bf] |!<(! e4-!<)! |!>(! e3 z!>)! | %28
 [Gceg][Gceg][G=Bfg][GBfg] | [Gcg]/c/d/e/- e/d/c | [FBdf][FBdf][FAef][FAef] | [FBf]/B/c/d/- d/c/B | %32
 [FA]2 [FAef]2 | z [Ec]/[Fd]/ [Ge]/[Fd]/[Ec] | [DB]F/G/ F/E/D/C/ | B,[FA][=EGB][D^G=B] || %36
[K:F]!f! [Cc]4- | [Cc][Cc][D=Bd][E_Be] | [Ff]4- | [Ff][FAcf][EAce][FAcf] | [Gg]2 [Ff]2 | [Cc]2 A2 | %42
 B4- | B[EB][EA][EB] | [Dd]4- | [Dd]BAB | [Ee]4- | [Ee][Ee][^D^d][Ee] | [Aa]2 [Gg]2 | [Ee]2 [Cc]2 | %50
 dede | [Ac][FA][EGB][D^G=B] | [Cc]4- | [Cc][Cc][D=Bd][E_Be] | [Ff]4- | [Ff][FAcf][EAce][FAcf] | %56
 [Ff]2 [Ee]2 | [Gg]2 [Ff]2 | [Dd]4- | [Dd][Dd][^C^c][Dd] | !>![Bdg]>^f [Bdg][Bdf] | [Bdg]d^cd | %62
 !>![Acf]>e [Acf][Ace] | [Acf][Ac][^G=B][Ac] | [F=Bd]>^c [FBd][FB^d] | [E_Be]>^d [EBe][EBc] | %66
 [Ff]4- |!>(! [Ff][FAf][=EB=e][Fc_e]!>)! ||[K:Bb] [Bd]((!>![A^cf][Bd]))((!>![Acf] | %69
 [Bd]))f/g/ [A^ca]/g/[Acf] |!<(! d4-!<)! |!>(! d3 z!>)! | [Bd]((!>![A^cf][Bd]))((!>![Acf] | %73
 [Bd]))f/g/ [Ba]/g/[Bf] |!<(! e4-!<)! |!>(! e3 z!>)! | [Gceg][Gceg][G=Bfg][GBfg] | %77
 [Gcg]/c/d/e/- e/d/c | [FBdf][FBdf][FAef][FAef] | [FBf]/B/c/d/- d/c/B | [FA]2 [FAef]2 | %81
 z [Ec]/[Fd]/ [Ge]/[Fd]/[Ec] | [DB]F/G/ F/E/D/C/ | B, ||[K:Eb][M:2/4]!p! [B,B][=A,=A][_A,_A] | %85
 [G,G]2 [B,B]2 | [A,A]2 [Cc]2 | [B,B]2 [GBeg]2- | g2 ag | f2 c2 | d2 f2 | B4- | %92
 B[B,B][=A,=A][_A,_A] | [G,G]2 [B,B]2 | [A,A]2 [Cc]2 | [B,B]2 [GBeg]2- | %96
!<(! [GBeg]2 [^FB^c^f][GBcg]!<)! | [=Bdg=b]2 [GBg][=EB=e] | [Dcd]2 [=Ac=a]2 | [Gg]4- | %100
 [Gg]!>(![_B,_B][=A,=A][_A,_A]!>)! | [G,G]2 [B,B]2 | [A,A]2 [Cc]2 | [B,B]2 [GBeg]2- | g2 ag | %105
 f2 c2 | d2 f2 | B4- | B2 =AB | [=EB_d]2 [EBc]>B | [=EB_d]2 [EBc]>B | [=A_eg]2 [Aef]>=e | %112
 [=A_eg]2 [Aef]>=e | [_Ac]2 [Ad]>[Ac] | [AB]2 [ABf]2 | [Ge](=A/B/ =B/c/^c/d/ | e) z z2 || %117
 z !>![EF=A]2 [EFA] | [DFB]F [DFB] z | .[_Af].[A_c].[Af] z | .[DFB].F.[DFB] z | .A._c.A.G | %122
 .F.A.F.E | .D.F.D.=C | ._B,!<(! [B,B][=A,=A][_A,_A]!<)! || [G,G]2 [B,B]2 | [A,A]2 [Cc]2 | %127
 [B,B]2 [GBeg]2- | g2 ag | f2 c2 | d2 f2 | B4- | B[B,B][=A,=A][_A,_A] | [G,G]2 [B,B]2 | %134
 [A,A]2 [Cc]2 | [B,B]2 [GBeg]2- |!<(! [GBeg]2 [^FB^c^f][GBcg]!<)! | [=Bdg=b]2 [GBg][=EB=e] | %138
 [Dcd]2 [=Ac=a]2 | [Gg]4- | [Gg]!>(![_B,_B][=A,=A][_A,_A]!>)! | [G,G]2 [B,B]2 | [A,A]2 [Cc]2 | %143
 [B,B]2 [GBeg]2- | g2 ag | f2 c2 | d2 f2 | B4- | B2 =AB | [=EB_d]2 [EBc]>B | [=EB_d]2 [EBc]>B | %151
 [=A_eg]2 [Aef]>=e | [=A_eg]2 [Aef]>=e | [_Ac]2 [Ad]>[Ac] | [AB]2 [ABf]2 | [Ge](=A/B/ =B/c/^c/d/ | %156
 e) z !^![egbe'] z |] %157
V:2
 !>![F,,F,]3 !>![=E,,=E,] | !>![_E,,_E,]3 !>![D,,D,] | [C,,C,][B,,,B,,][A,,,A,,][G,,,G,,] | %3
 [F,,,F,,] z !^![F,,,F,,] z || [B,,B,]((!>!F,[B,,B,]))((!>!F, | [B,,B,]))[F,B,D] [F,,F,][F,A,^C] | %6
 B,,[F,B,D] F,,[F,B,D] | B,,[F,B,D] F,,[F,B,D] | [B,,B,]((!>!F,[B,,B,]))((!>!F, | %9
 [B,,B,]))[F,B,D] [D,D][_D,_D] | [C,C][F,A,E] [F,,F,][F,A,E] | [C,C][F,A,E] [F,,F,][F,A,E] | %12
 [C,C][F,A,E] F,,[F,A,E] | [C,C][=B,,=B,] [C,C][F,,F,] | B,,[F,B,D] F,,[F,B,D] | %15
 B,,[F,B,D] B,,[F,B,D] | A,,[^F,A,D] [^F,,F,][=F,,=F,] | [=E,,=E,][A,,A,][=B,,=B,][^C,^C] | %18
 DA,/^G,/ A,/G,/A,/G,/ | A, z !>![C,C]2 | [B,,B,]((!>!F,[B,,B,]))((!>!F, | %21
 [B,,B,]))[F,B,D] [F,,F,][F,A,^C] | B,,[F,B,D] F,,[F,B,D] | B,,[F,B,D] F,,[F,B,D] | %24
 [B,,B,]((!>!F,[B,,B,]))((!>!F, | [B,,B,]))[F,B,D] [D,D][_D,_D] | [C,C][F,A,E] [F,,F,][F,A,E] | %27
 C,[F,A,E] [F,,F,][F,A,E] | z [G,C]z[G,=B,] | E,[G,CE] C,[G,CE] | z [F,B,]z[F,A,] | %31
 D,[F,B,D] B,,[F,B,D] | C,[F,A,E] z [=B,,,=B,,] | [C,,C,][F,A,] F,,[F,A,] | %34
 [B,,B,]F,/G,/ F,/E,/D,/C,/ | B,, z z2 ||[K:F] F,,[C,F,A,] C,,[C,F,A,] | %37
 F,,[A,,A,][_A,,_A,][G,,G,] | [F,,F,][F,A,C] C,[F,A,C] | [F,,F,][F,A,C] C,[F,A,C] | %40
 [F,,F,]2 [C,,C,]2 | [F,,F,]2 [^F,,^F,]2 | [G,,G,][G,B,C] C,[G,B,C] | [G,,G,][G,B,C] C,[G,B,C] | %44
 G,,[G,B,C] C,[G,B,C] | G,,[G,B,C] C,[G,B,C] | G,,[G,B,C] C,[G,B,C] | G,,[G,B,C] C,[G,B,C] | %48
 [E,,E,]2 [C,,C,]2 | [G,,G,]2 [C,,C,]2 | [F,=B,]2 [F,B,]2 | [F,C] z z2 | F,,[C,F,A,] C,,[C,F,A,] | %53
 F,,[A,,A,][_A,,_A,][G,,G,] | [F,,F,][F,A,C] C,[F,A,C] | [F,,F,][F,A,C] C,[F,A,C] | %56
 [F,,F,]2 [C,,C,]2 | [A,,A,]2 [F,,F,]2 | [B,,B,]2 [A,,A,]2 | [G,,G,] z z2 | B,,[G,B,D] G,,[G,B,D] | %61
 B,,[G,B,D] G,,[G,B,D] | F,,[F,A,C] C,[F,A,C] | F,,[F,A,C] F,,[F,A,C] | G,,[F,G,=B,] G,,[F,G,B,] | %65
 C,[E,_B,C] C,[E,B,C] | [F,,F,]2 [=B,,,=B,,]2 | [C,,C,][F,,F,][G,,G,][A,,A,] || %68
[K:Bb] [B,,B,]((!>!F,[B,,B,]))((!>!F, | [B,,B,]))[F,B,D] [F,,F,][F,A,^C] | B,,[F,B,D] F,,[F,B,D] | %71
 B,,[F,B,D] F,,[F,B,D] | [B,,B,]((!>!F,[B,,B,]))((!>!F, | [B,,B,]))[F,B,D] [D,D][_D,_D] | %74
 [C,C][F,A,E] [F,,F,][F,A,E] | C,[F,A,E] [F,,F,][F,A,E] | z [G,C]z[G,=B,] | E,[G,CE] C,[G,CE] | %78
 z [F,B,]z[F,A,] | D,[F,B,D] B,,[F,B,D] | C,[F,A,E] z [=B,,,=B,,] | [C,,C,][F,A,] F,,[F,A,] | %82
 [B,,B,]F,/G,/ F,/E,/D,/C,/ | B,, ||[K:Eb][M:2/4] [B,,,B,,][C,,C,][D,,D,] | [E,,E,]2 [=E,,=E,]2 | %86
 [F,,F,]2 [^F,,^F,]2 | [G,,G,]3 !>![B,,,B,,] | !>![E,,E,]2 [C,,C,]2 | %89
 [F,,F,][F,=A,E] [F,,F,][F,A,E] | B,,[_A,B,D] B,,[A,B,D] | [E,,E,]3 [=E,,=E,] | %92
 [F,,F,][B,,,B,,][C,,C,][D,,D,] | [E,,E,]2 [=E,,=E,]2 | [F,,F,]2 [^F,,^F,]2 | %95
 [G,,G,]3 !>![B,,,B,,] | !>![E,,E,]2 [E,,E,]2 | [D,,D,][D,G,=B,] [D,,D,][D,G,B,] | %98
 [^F,,^F,][D,F,C] [D,,D,][D,F,C] | [G,,G,]4- | [G,,G,][B,,,B,,][C,,C,][D,,D,] | %101
 [E,,E,]2 [=E,,=E,]2 | [F,,F,]2 [^F,,^F,]2 | [G,,G,]3 !>![B,,,B,,] | [E,,E,]2 [C,,C,]2 | %105
 [F,,F,][F,=A,E] [F,,F,][F,A,E] | B,,[_A,B,D] B,,[A,B,D] | [E,,E,]3 [=E,,=E,] | %108
 [F,,F,]2 [B,,,B,,]2 | G,,[G,B,C] C,[G,B,C] | G,,[G,B,C] C,[G,B,C] | C,[=A,CE] F,[A,CE] | %112
 C,[=A,CE] F,[A,CE] | F,,[_A,B,D] B,,[A,B,D] | F,,[_A,B,D] B,,[A,B,D] | E,(=A,/B,/ =B,/C/^C/D/ | %116
 E) !^![_D,,_D,]!^![D,,D,]!^![C,,C,] || !>![_C,,_C,]3 [C,,C,] | [B,,,B,,]F, B, z | %119
 .[_CEF].[CEF].[CEF] z | .B,.F,.B, z | ._C.D.C.B, | .A,._C.A,.G, | .F,.A,.F,.E, | %124
 .D, [B,,,B,,][C,,C,][D,,D,] || [E,,E,]2 [=E,,=E,]2 | [F,,F,]2 [^F,,^F,]2 | [G,,G,]3 !>![B,,,B,,] | %128
 !>![E,,E,]2 [C,,C,]2 | [F,,F,][F,=A,E] [F,,F,][F,A,E] | B,,[_A,B,D] B,,[A,B,D] | %131
 [E,,E,]3 [=E,,=E,] | [F,,F,][B,,,B,,][C,,C,][D,,D,] | [E,,E,]2 [=E,,=E,]2 | [F,,F,]2 [^F,,^F,]2 | %135
 [G,,G,]3 !>![B,,,B,,] | !>![E,,E,]2 [E,,E,]2 | [D,,D,][D,G,=B,] [D,,D,][D,G,B,] | %138
 [^F,,^F,][D,F,C] [D,,D,][D,F,C] | [G,,G,]4- | [G,,G,][B,,,B,,][C,,C,][D,,D,] | %141
 [E,,E,]2 [=E,,=E,]2 | [F,,F,]2 [^F,,^F,]2 | [G,,G,]3 !>![B,,,B,,] | [E,,E,]2 [C,,C,]2 | %145
 [F,,F,][F,=A,E] [F,,F,][F,A,E] | B,,[_A,B,D] B,,[A,B,D] | [E,,E,]3 [=E,,=E,] | %148
 [F,,F,]2 [B,,,B,,]2 | G,,[G,B,C] C,[G,B,C] | G,,[G,B,C] C,[G,B,C] | C,[=A,CE] F,[A,CE] | %152
 C,[=A,CE] F,[A,CE] | F,,[_A,B,D] B,,[A,B,D] | F,,[_A,B,D] B,,[A,B,D] | E,(=A,/B,/ =B,/C/^C/D/ | %156
 E) z !^![E,,E,] z |] %157
V:3
 x4 | x4 | x4 | x4 || x4 | x4 | z .[Ff]/.[Ff]/ .[Ff].[Gf]/.[Gf]/ | .[Gf].[Af].[Gf].[Ff] | x4 | x4 | %10
 z .[Ff]/.[Ff]/ .[Ff].[Gf]/.[Gf]/ | [Gf][Af][Gf][Ff] | x4 | x4 | x4 | x4 | x4 | x4 | %18
 ^FF/^E/ F/E/F/E/ | ^F x3 | x4 | x4 | z .[Ff]/.[Ff]/ .[Ff].[Gf]/.[Gf]/ | .[Gf].[Af].[Gf].[Ff] | %24
 x4 | x4 | z .[Ff]/.[Ff]/ .[Ff].[Gf]/.[Gf]/ | .[Gf].[Af].[Gf].[Ff] | x4 | x4 | x4 | x4 | x4 | x4 | %34
 x4 | x4 ||[K:F] z [FA]/[E^G]/ [FA]/[EG]/[FA]/[EG]/ | [FA] x3 | %38
 z [Ac]/[^G=B]/ [Ac]/[GB]/[Ac]/[GB]/ | [Ac] x3 | z [Ac]z[Ac] | z [FA] z [C_E] | z (E/^D/ E/D/E/D/ | %43
 E) x3 | z [GB]/[^FA]/ [GB]/[FA]/[GB]/[FA]/ | [GB] x3 | z [GB]/[^FA]/ [GB]/[FA]/[GB]/[FA]/ | %47
 [GB] x3 | z [c_e] z [Be] | z [Bc] z [EB] | G2 ^G2 | x4 | z [FA]/[E^G]/ [FA]/[EG]/[FA]/[EG]/ | %53
 [FA] x3 | z [Ac]/[^G=B]/ [Ac]/[GB]/[Ac]/[GB]/ | [Ac] x3 | z [Ac] z [Ac] | z [c_e] z [Ae] | %58
 z [FB]z[^Fc] | x4 | x4 | x4 | x4 | x4 | x4 | x4 | z [Ac]z[^Gd] | [Ae] x3 ||[K:Bb] x4 | x4 | %70
 z .[Ff]/.[Ff]/ .[Ff].[Gf]/.[Gf]/ | .[Gf].[Af].[Gf].[Ff] | x4 | x4 | %74
 z .[Ff]/.[Ff]/ .[Ff].[Gf]/.[Gf]/ | .[Gf].[Af].[Gf].[Ff] | x4 | x4 | x4 | x4 | x4 | x4 | x4 | x || %84
[K:Eb][M:2/4] x3 | z [B,E] z [_DG] | z [B,=D] z [E=A] | z [EG] x2 | [GBe]_d [c=e][Be] | (=A4 | %90
 _A4) | z [B,G][CG][^CG] | [DA] x3 | z [B,E] z [_DG] | z [B,=D] z [E=A] | z [EG] x2 | x4 | x4 | %98
 x4 | z [=Bd]/[Bd]/ [Bd][Bd] | [=Bd] x3 | z [B,E] z [_DG] | z [B,=D] z [E=A] | z [EG] x2 | %104
 [GBe]_d [c=e][Be] | (=A4 | _A4) | z [B,G][CG][^CG] | [DA][DA] z [D_A] | x4 | x4 | x4 | x4 | x4 | %114
 x4 | x4 | x4 || x4 | x4 | x4 | x4 | x4 | x4 | x4 | x4 || z [B,E] z [_DG] | z [B,=D] z [E=A] | %127
 z [EG] x2 | [GBe]_d [c=e][Be] | (=A4 | _A4) | z [B,G][CG][^CG] | [DA] x3 | z [B,E] z [_DG] | %134
 z [B,=D] z [E=A] | z [EG] x2 | x4 | x4 | x4 | z [=Bd]/[Bd]/ [Bd][Bd] | [=Bd] x3 | %141
 z [B,E] z [_DG] | z [B,=D] z [E=A] | z [EG] x2 | [GBe]_d [c=e][Be] | (=A4 | _A4) | %147
 z [B,G][CG][^CG] | [DA][DA] z [D_A] | x4 | x4 | x4 | x4 | x4 | x4 | x4 | x4 |] %157
V:4
 x4 | x4 | x4 | x4 || x4 | x4 | x4 | x4 | x4 | x4 | x4 | x4 | x4 | x4 | x4 | x4 | x4 | x4 | D,4- | %19
 D, x3 | x4 | x4 | x4 | x4 | x4 | x4 | x4 | x4 | C,2 D,2 | x4 | B,,2 C,2 | x4 | x4 | x4 | x4 | %35
 x4 ||[K:F] x4 | x4 | x4 | x4 | x4 | x4 | x4 | x4 | x4 | x4 | x4 | x4 | x4 | x4 | x4 | x4 | x4 | %53
 x4 | x4 | x4 | x4 | x4 | x4 | x4 | x4 | x4 | x4 | x4 | x4 | x4 | x4 | x4 ||[K:Bb] x4 | x4 | x4 | %71
 x4 | x4 | x4 | x4 | x4 | C,2 D,2 | x4 | B,,2 C,2 | x4 | x4 | x4 | x4 | x ||[K:Eb][M:2/4] x3 | x4 | %86
 x4 | x4 | x4 | x4 | x4 | x4 | x4 | x4 | x4 | x4 | x4 | x4 | x4 | x4 | x4 | x4 | x4 | x4 | x4 | %105
 x4 | x4 | x4 | x4 | x4 | x4 | x4 | x4 | x4 | x4 | x4 | x4 || x4 | x4 | x4 | x4 | x4 | x4 | x4 | %124
 x4 || x4 | x4 | x4 | x4 | x4 | x4 | x4 | x4 | x4 | x4 | x4 | x4 | x4 | x4 | x4 | x4 | x4 | x4 | %143
 x4 | x4 | x4 | x4 | x4 | x4 | x4 | x4 | x4 | x4 | x4 | x4 | x4 | x4 |] %157

